X: 041275
T: Din Tarrant's #3
S: "Johnny O'Leary of Sliabh Luachra" (#250)
Z: B.Black
L: 1/8
M: 2/4
Q: 270
R: polka
K: D
d2 e/f/e/d/|cA AD|GF/G/ AG|F/G/A DF/D/|
GF/G/ A(3G/A/G/|FA de/f/|g/f/e/d/ ce|d2 e/d/B :|
d>e fa|gf e2|c/B/A eA|fA/f/ eA|
de f/g/a|gf ee/d/|cA BA|1 d2 e/d/B :|2 d2 d2||
